src/icons/calendar.svg

<?xml version="1.0" encoding="UTF-8"?>
<svg id="export" xmlns="http://www.w3.org/2000/svg" width="24" height="24" viewBox="0 0 24 24">
  <defs>
    <style>
      .cls-1 {
        fill: #bb2649;
      }
    </style>
  </defs>
  <g id="icon-calendar">
    <path class="cls-1" d="m19.5,16.5h-3c-.28,0-.5-.22-.5-.5v-3c0-.28.22-.5.5-.5h3c.28,0,.5.22.5.5v3c0,.28-.22.5-.5.5Zm-2.5-1h2v-2h-2v2Z"/>
    <path class="cls-1" d="m13.5,16.5h-3c-.28,0-.5-.22-.5-.5v-3c0-.28.22-.5.5-.5h3c.28,0,.5.22.5.5v3c0,.28-.22.5-.5.5Zm-2.5-1h2v-2h-2v2Z"/>
    <path class="cls-1" d="m7.5,16.5h-3c-.28,0-.5-.22-.5-.5v-3c0-.28.22-.5.5-.5h3c.28,0,.5.22.5.5v3c0,.28-.22.5-.5.5Zm-2.5-1h2v-2h-2v2Z"/>
    <path class="cls-1" d="m18,4c-.28,0-.5-.22-.5-.5V.5c0-.28.22-.5.5-.5s.5.22.5.5v3c0,.28-.22.5-.5.5Z"/>
    <rect class="cls-1" x="7.5" y="1" width="9" height="1"/>
    <path class="cls-1" d="m6,4c-.28,0-.5-.22-.5-.5V.5c0-.28.22-.5.5-.5s.5.22.5.5v3c0,.28-.22.5-.5.5Z"/>
    <path class="cls-1" d="m23.5,1h-4v1h3.5v3.5H1v-3.5h3.5v-1H.5c-.28,0-.5.22-.5.5v22c0,.28.22.5.5.5h23c.28,0,.5-.22.5-.5V1.5c0-.28-.22-.5-.5-.5ZM1,23V6.5h22v16.5H1Z"/>
  </g>
</svg>

<svg id="export" xmlns="http://www.w3.org/2000/svg" width="24" height="24" viewBox="0 0 24 24"><defs><style>.cls-1{fill:#3c5583;}</style></defs><g id="icon-calendar"><path class="cls-1" d="M19.5,16.5h-3A.5.5,0,0,1,16,16V13a.5.5,0,0,1,.5-.5h3a.5.5,0,0,1,.5.5v3A.5.5,0,0,1,19.5,16.5Zm-2.5-1h2v-2H17Z"/><path class="cls-1" d="M13.5,16.5h-3A.5.5,0,0,1,10,16V13a.5.5,0,0,1,.5-.5h3a.5.5,0,0,1,.5.5v3A.5.5,0,0,1,13.5,16.5Zm-2.5-1h2v-2H11Z"/><path class="cls-1" d="M7.5,16.5h-3A.5.5,0,0,1,4,16V13a.5.5,0,0,1,.5-.5h3A.5.5,0,0,1,8,13v3A.5.5,0,0,1,7.5,16.5ZM5,15.5H7v-2H5Z"/><path class="cls-1" d="M18,4a.5.5,0,0,1-.5-.5V.5a.5.5,0,0,1,1,0v3A.5.5,0,0,1,18,4Z"/><rect class="cls-1" x="7.5" y="1" width="9" height="1"/><path class="cls-1" d="M6,4a.5.5,0,0,1-.5-.5V.5a.5.5,0,0,1,1,0v3A.5.5,0,0,1,6,4Z"/><path class="cls-1" d="M23.5,1h-4V2H23V5.5H1V2H4.5V1H.5a.5.5,0,0,0-.5.5v22a.5.5,0,0,0,.5.5h23a.5.5,0,0,0,.5-.5V1.5A.5.5,0,0,0,23.5,1ZM1,23V6.5H23V23Z"/></g></svg>
